!! 00000] TT[00
!! NN
!!!OTL: Lan poniang ma ji
!!!ARE: Asia, China,Henan, Chengping
!! Ethnic Group: Han
!! IV, 172
!!!SCT: C0397A
!!!YEM: Copyright 1995, estate of Helmut Schaffrath.
**kern
*ICvox
*Ivox
!! Mixed meters:  2/4; 3/4
*M3/4
*k[b-]
*F:
{8g
8g
16g
16a
16g
16f
=1
8f
8f
8r
8f
=2
16f
16b-
16b-
16f
8r}
{8g
=3
8g
16g
16g
8g
16g
16f
=4
8.f
16g
8ff
8cc
=5
8cc
16cc
16g
[4f
8f]}
{16cc
16cc
=6
*M2/4
8cc
16f
16g
4f
=7
8cc
16f
16g
4f}
=8
{8cc
16cc
16a
16g
16a
16g
16f
=9
16g
16f
16f
16g
4f}
=10
{8g
8g
8g
16g
16f
=11
8f
4ff
16dd
16cc
=12
8cc
16cc
16g
4f}
=13
{8g
8g
8g
16g
16f
=14
8.f
16g
8ff
8cc
=15
*M3/4
8cc
16cc
16g
2f}
=16
*M2/4
{8cc
16cc
16cc
16g
16a
16g
16f
=17
16g
16f
16f
16g
8f
16r}
{16cc
=18
8cc
16cc
16a
16g
16a
16g
16f
=19
8cc
8d
4f}
=20
{8b-
8f
8b-
16b-
16g
=21
8b-
16f
16g
8f
16r}
{16cc
=22
8cc
16cc
16a
16g
16a
16g
16f
=23
8g
16f
16g
4f}
=24
{8b-
8b-
16g
16a
16g
16f
=25
8g
16f
16g
8f
16r}
{16g
=26
8g
8g
16g
16a
16g
16f
=27
8cc
8d
8f
8r}
=28
{16cc
16cc
8cc
16g
16b-
16g
16f
=29
8cc
16f
16g
8f
16r}
{16cc
=30
8cc
16cc
16a
16g
16a
16g
16f
=31
*M3/4
8f
16cc
16d
2f
=32
*M2/4
16ee}
!!	ERROR: Second "MEL" statement encountered in input line 1647.
*k[b-]
*F:
{8b-
16b-
16b-
16g
16a
16g
16f
=1
8g
16f
16g
8f
16r}
{16f
=2
8f
8f
8b-
16f
16f
=3
8cc
16f
16g
4f}
=4
{8cc
16cc
16a
16g
16a
16g
16f
=5
16g
16f
16f
16g
4f}
=6
{8cc
16cc
16a
16g
16a
16g
16f
=7
8cc
16f
16g
4f}
=8
{8cc
16cc
16a
16g
16a
16g
16f
=9
8g
16f
16g
4f}
=10
{8cc
16cc
16a
16g
16a
16g
16f
=11
8.cc
16f
8f
16r}
{16cc
=12
8cc
16cc
16a
16g
16a
16g
16f
=13
8f
8cc
8f
16r}
{16c
=14
8c
8c
16b-
16b-
16b-
16g
=15
8f
8cc
8f
16r}
{16f
=16
8f
8f
16b-
16b-
16b-
16g
=17
16d
16f
16cc
16d
8f
16r}
{16f
=18
8f
8f
16b-
16b-
16b-
16g
=19
8f
8cc
8f
16r}
{16c
=20
8c
8c
16b-
16b-
16b-
16g
=21
16f
16g
16cc
16d
8f
16r}
{16cc
=22
8cc
16cc
16a
16g
16a
16g
16f
=23
16f
16g
16cc
16d
8f
8r}
=24
{8g
8g
8g
16g
16g
=25
8f
4ff
16dd
16cc
=26
8cc
16cc
16g
8f
8r}
=27
{8g
16g
16g
8g
16g
16g
=28
8.f
16g
8ff
8cc
=29
8cc
16cc
16g
2f}
==
!!!AGN: Xiaodiao
!! sehr prosaisch und typisch fuer diese Provinz. Urspruenglich
!!    fuer ein volkstuemliches Kleintheater: Eine Frau mit vielen
!!    Huehnern bemerkt, dass eins fehlt. Waehrend sie noch ueber den
!!    vermeintlichen Diebstahl schimpft, kommt es angelaufen.
!!    Einige Glissandi, Verzierungen. Zwischenspiele weggelassen.
!!!ONB: ESAC (Essen Associative Code) Database: CHINA_040
!!!AMT: irregular
!!!AIN: vox
!!!EED: Helmut Schaffrath
!!!EEV: 1.0
*-
